<?xml version="1.0" encoding="UTF-8"?>
<map version="1.10" tiledversion="1.11.2" orientation="orthogonal" renderorder="right-down" width="30" height="20" tilewidth="32" tileheight="32" infinite="0" nextlayerid="9" nextobjectid="14">
 <tileset firstgid="1" name="Slates v.2 [32x32px orthogonal tileset by Ivan Voirol]" tilewidth="32" tileheight="32" tilecount="1288" columns="56">
  <image source="Slates v.2 [32x32px orthogonal tileset by Ivan Voirol].png" width="1792" height="736"/>
  <tile id="108">
   <animation>
    <frame tileid="108" duration="100"/>
    <frame tileid="109" duration="100"/>
    <frame tileid="110" duration="100"/>
    <frame tileid="111" duration="100"/>
   </animation>
  </tile>
  <tile id="664">
   <animation>
    <frame tileid="664" duration="100"/>
    <frame tileid="832" duration="100"/>
    <frame tileid="1000" duration="100"/>
    <frame tileid="1168" duration="100"/>
   </animation>
  </tile>
  <tile id="665">
   <animation>
    <frame tileid="665" duration="100"/>
    <frame tileid="833" duration="100"/>
    <frame tileid="1001" duration="100"/>
    <frame tileid="1169" duration="100"/>
   </animation>
  </tile>
  <tile id="666">
   <animation>
    <frame tileid="666" duration="100"/>
    <frame tileid="778" duration="100"/>
    <frame tileid="890" duration="100"/>
    <frame tileid="1002" duration="100"/>
   </animation>
  </tile>
  <tile id="667">
   <animation>
    <frame tileid="667" duration="100"/>
    <frame tileid="779" duration="100"/>
    <frame tileid="891" duration="100"/>
    <frame tileid="1003" duration="100"/>
   </animation>
  </tile>
  <tile id="720">
   <animation>
    <frame tileid="720" duration="100"/>
    <frame tileid="888" duration="100"/>
    <frame tileid="1056" duration="100"/>
    <frame tileid="1224" duration="100"/>
   </animation>
  </tile>
  <tile id="721">
   <animation>
    <frame tileid="721" duration="100"/>
    <frame tileid="889" duration="100"/>
    <frame tileid="1057" duration="100"/>
    <frame tileid="1225" duration="100"/>
   </animation>
  </tile>
  <tile id="722">
   <animation>
    <frame tileid="722" duration="100"/>
    <frame tileid="834" duration="100"/>
    <frame tileid="946" duration="100"/>
    <frame tileid="1058" duration="100"/>
   </animation>
  </tile>
  <tile id="723">
   <animation>
    <frame tileid="723" duration="100"/>
    <frame tileid="835" duration="100"/>
    <frame tileid="947" duration="100"/>
    <frame tileid="1059" duration="100"/>
   </animation>
  </tile>
  <tile id="744">
   <animation>
    <frame tileid="744" duration="100"/>
    <frame tileid="745" duration="100"/>
    <frame tileid="746" duration="100"/>
    <frame tileid="747" duration="100"/>
   </animation>
  </tile>
  <tile id="776">
   <animation>
    <frame tileid="776" duration="100"/>
    <frame tileid="944" duration="100"/>
    <frame tileid="1112" duration="100"/>
    <frame tileid="1280" duration="100"/>
   </animation>
  </tile>
  <tile id="777">
   <animation>
    <frame tileid="777" duration="100"/>
    <frame tileid="945" duration="100"/>
    <frame tileid="1113" duration="100"/>
    <frame tileid="1281" duration="100"/>
   </animation>
  </tile>
  <tile id="1212">
   <animation>
    <frame tileid="1212" duration="100"/>
    <frame tileid="1213" duration="100"/>
    <frame tileid="1214" duration="100"/>
   </animation>
  </tile>
 </tileset>
 <layer id="1" name="Ground" width="30" height="20">
  <data encoding="csv">
338,114,114,114,114,338,114,338,114,338,338,338,338,338,114,114,114,338,338,114,114,114,338,338,114,114,338,338,114,114,
338,114,114,338,114,338,338,114,338,338,338,338,338,338,114,338,114,338,114,114,338,114,338,114,338,338,338,114,114,338,
338,114,338,338,114,338,338,338,338,114,114,338,114,114,114,114,114,338,338,338,338,338,338,338,338,338,338,114,338,338,
338,338,114,338,338,114,114,114,114,114,338,114,338,338,114,114,338,338,338,338,338,338,114,114,114,114,114,338,114,338,
114,338,114,338,114,338,114,338,114,114,338,114,114,338,114,338,114,338,114,114,114,114,338,338,338,338,338,114,114,114,
338,338,338,338,338,338,114,338,114,114,114,338,114,114,114,114,114,338,114,114,338,338,114,114,338,338,338,114,338,114,
338,338,114,114,338,338,338,114,338,338,114,114,338,114,338,114,338,338,114,338,114,338,114,338,338,338,114,338,338,114,
114,338,114,114,338,338,338,338,338,114,114,338,114,114,114,114,114,338,114,338,338,114,114,114,338,338,114,114,338,114,
114,114,338,114,338,114,338,338,338,338,338,114,338,338,338,114,338,338,114,114,114,114,338,338,338,338,114,338,338,114,
338,338,338,114,114,114,338,114,338,338,887,338,338,338,338,114,338,338,338,114,114,338,114,114,114,338,114,114,114,114,
114,114,338,338,114,114,338,114,114,338,887,114,338,114,338,114,338,114,114,338,114,338,338,114,338,338,114,338,114,114,
114,114,338,338,338,114,338,338,338,338,887,887,887,887,887,887,887,114,338,114,338,114,338,338,338,114,114,338,338,338,
338,338,114,114,114,114,114,114,338,114,887,114,338,114,338,338,114,338,338,338,338,114,114,338,338,338,338,114,338,338,
114,338,114,114,338,114,338,114,338,114,887,338,338,114,114,338,114,114,338,114,114,114,114,114,114,338,114,338,114,338,
114,114,114,114,338,887,887,887,887,887,887,338,114,114,114,114,338,114,338,114,114,114,114,114,338,338,114,114,338,114,
338,114,338,114,114,338,887,338,114,114,338,114,338,338,338,114,338,338,338,338,338,338,338,338,338,338,338,338,338,338,
114,338,338,338,114,338,887,338,338,338,338,114,114,338,338,114,114,338,114,338,338,338,338,114,114,338,338,114,114,338,
114,338,114,114,338,114,887,338,338,338,114,338,114,114,114,338,338,114,114,338,338,114,114,338,114,338,338,114,338,114,
338,338,114,114,114,114,887,114,338,114,114,114,114,114,114,338,338,114,338,114,114,338,114,114,114,114,114,338,114,114,
114,114,338,338,338,114,114,114,338,114,114,114,338,338,338,338,338,338,114,114,338,114,114,114,114,114,114,114,114,114
</data>
 </layer>
 <layer id="2" name="Buildings" width="30" height="20">
  <data encoding="csv">
0,0,0,0,0,0,0,0,0,0,0,0,0,0,0,0,0,0,0,0,0,0,0,0,0,0,0,0,0,0,
0,0,0,0,0,0,0,0,0,0,0,0,0,0,0,0,0,0,0,0,0,0,0,0,0,0,0,0,0,0,
0,0,0,0,0,0,0,0,0,0,485,264,0,0,0,0,0,0,0,0,0,0,0,0,0,0,0,0,0,0,
0,0,0,0,0,0,0,0,0,0,319,320,0,0,0,0,0,0,0,0,0,0,0,0,0,0,0,0,0,0,
0,0,0,0,0,0,0,0,0,0,375,376,0,0,0,0,0,0,0,0,0,0,0,0,0,0,0,0,0,0,
0,0,0,0,0,0,0,0,0,0,757,759,0,0,0,0,0,0,0,0,0,0,0,0,0,0,0,0,0,0,
0,0,0,0,0,0,0,0,0,0,543,544,0,0,0,0,0,0,0,0,0,0,0,0,0,0,0,0,0,0,
0,0,0,0,0,0,0,0,0,0,261,262,0,0,0,0,0,0,0,0,0,0,0,0,0,0,0,0,0,0,
0,0,0,0,0,0,0,0,0,0,648,875,0,0,0,263,486,0,0,0,0,0,0,0,0,0,0,0,0,0,
0,0,0,0,0,0,0,0,0,0,0,0,0,0,0,375,376,0,0,0,0,0,0,0,0,0,0,0,0,0,
0,0,0,0,0,0,0,0,0,0,0,0,0,0,0,925,648,0,0,0,0,0,0,0,0,0,0,0,0,0,
0,0,0,0,0,0,263,264,0,0,0,0,0,0,0,0,0,0,0,0,0,0,0,0,0,0,0,0,0,0,
0,0,0,0,0,0,261,262,0,0,0,0,0,0,0,0,0,0,0,0,0,0,0,0,0,0,0,0,0,0,
0,0,0,0,0,0,925,648,0,0,0,0,0,0,0,0,0,0,0,0,0,0,0,0,0,0,0,0,0,0,
0,0,0,0,0,0,0,0,0,0,0,0,0,0,0,0,0,0,0,0,0,0,0,0,0,0,0,0,0,0,
0,0,0,0,0,0,0,0,0,0,0,0,0,0,0,0,0,0,0,0,0,0,0,0,0,0,0,0,0,0,
0,0,0,0,0,0,0,0,0,0,0,0,0,0,0,0,0,0,0,0,0,0,0,0,0,0,0,0,0,0,
0,0,0,0,0,0,0,0,0,0,0,0,0,0,0,0,0,0,0,0,0,0,0,0,0,0,0,0,0,0,
0,0,0,0,0,0,0,0,0,0,0,0,0,0,0,0,0,0,0,0,0,0,0,0,0,0,0,0,0,0,
0,0,0,0,0,0,0,0,0,0,0,0,0,0,0,0,0,0,0,0,0,0,0,0,0,0,0,0,0,0
</data>
 </layer>
 <layer id="4" name="Windmill" width="30" height="20">
  <data encoding="csv">
0,0,0,0,0,0,0,0,0,0,0,0,0,0,0,0,0,0,0,0,0,0,0,0,0,0,0,0,0,0,
0,0,0,0,0,0,0,0,0,0,0,0,0,0,0,0,0,0,0,0,0,0,0,0,0,0,0,0,0,0,
0,0,0,0,0,0,0,0,0,0,0,0,0,0,0,0,0,0,0,0,0,0,0,0,0,0,0,0,0,0,
0,0,0,0,0,0,0,0,0,0,0,0,0,0,0,0,0,0,0,0,0,0,0,0,0,0,0,0,0,0,
0,0,0,0,0,0,0,0,0,0,667,668,0,0,0,0,0,0,0,0,0,0,0,0,0,0,0,0,0,0,
0,0,0,0,0,0,0,0,0,0,723,724,0,0,0,0,0,0,0,0,0,0,0,0,0,0,0,0,0,0,
0,0,0,0,0,0,0,0,0,0,0,0,0,0,0,0,0,0,0,0,0,0,0,0,0,0,0,0,0,0,
0,0,0,0,0,0,0,0,0,0,0,0,0,0,0,0,0,0,0,0,0,0,0,0,0,0,0,0,0,0,
0,0,0,0,0,0,0,0,0,0,0,0,0,0,0,0,0,0,0,0,0,0,0,0,0,0,0,0,0,0,
0,0,0,0,0,0,0,0,0,0,0,0,0,0,0,0,0,0,0,0,0,0,0,0,0,0,0,0,0,0,
0,0,0,0,0,0,0,0,0,0,0,0,0,0,0,0,0,0,0,0,0,0,0,0,0,0,0,0,0,0,
0,0,0,0,0,0,0,0,0,0,0,0,0,0,0,0,0,0,0,0,0,0,0,0,0,0,0,0,0,0,
0,0,0,0,0,0,0,0,0,0,0,0,0,0,0,0,0,0,0,0,0,0,0,0,0,0,0,0,0,0,
0,0,0,0,0,0,0,0,0,0,0,0,0,0,0,0,0,0,0,0,0,0,0,0,0,0,0,0,0,0,
0,0,0,0,0,0,0,0,0,0,0,0,0,0,0,0,0,0,0,0,0,0,0,0,0,0,0,0,0,0,
0,0,0,0,0,0,0,0,0,0,0,0,0,0,0,0,0,0,0,0,0,0,0,0,0,0,0,0,0,0,
0,0,0,0,0,0,0,0,0,0,0,0,0,0,0,0,0,0,0,0,0,0,0,0,0,0,0,0,0,0,
0,0,0,0,0,0,0,0,0,0,0,0,0,0,0,0,0,0,0,0,0,0,0,0,0,0,0,0,0,0,
0,0,0,0,0,0,0,0,0,0,0,0,0,0,0,0,0,0,0,0,0,0,0,0,0,0,0,0,0,0,
0,0,0,0,0,0,0,0,0,0,0,0,0,0,0,0,0,0,0,0,0,0,0,0,0,0,0,0,0,0
</data>
 </layer>
 <layer id="5" name="Overgrowth" width="30" height="20">
  <data encoding="csv">
0,0,0,0,0,0,0,0,0,0,0,0,0,0,0,0,0,0,0,0,0,0,0,0,0,0,0,0,0,0,
0,0,0,0,0,0,0,0,0,0,0,0,0,0,0,0,0,0,0,0,0,0,0,0,0,0,0,0,0,0,
0,0,0,0,0,0,0,0,0,0,0,0,0,0,0,0,0,0,0,0,0,0,0,0,0,0,0,0,0,0,
0,0,0,0,0,0,0,0,0,0,0,0,0,0,0,0,0,0,0,0,0,0,0,0,0,0,0,0,0,0,
0,0,0,0,0,0,0,0,0,0,0,0,0,0,0,0,0,0,0,0,0,0,0,0,0,0,0,0,0,0,
0,0,0,0,0,0,0,0,0,0,0,0,0,0,0,0,0,0,0,0,0,0,0,0,0,0,0,0,0,0,
0,0,0,0,0,0,0,0,0,0,0,0,0,0,0,0,0,0,0,0,0,0,0,0,0,0,0,0,0,0,
0,0,0,0,0,0,0,0,0,0,0,0,0,0,0,0,0,0,0,0,0,0,0,0,0,0,0,0,0,0,
0,0,0,0,0,0,0,0,0,0,1269,1269,0,0,0,0,0,0,0,0,0,0,0,0,0,0,0,0,0,0,
0,0,0,0,0,0,0,0,0,0,400,0,0,630,0,0,0,0,0,0,0,0,0,0,0,0,0,0,0,0,
0,0,0,0,0,0,0,0,631,0,456,0,0,0,0,1269,1269,0,0,0,0,0,0,0,0,0,0,0,0,0,
0,0,0,0,0,0,0,0,0,0,453,566,566,566,566,566,567,0,0,0,0,0,0,0,0,0,0,0,0,0,
0,0,0,0,0,0,0,0,0,0,456,0,0,0,687,0,0,0,0,0,0,0,0,0,0,0,0,0,0,0,
0,0,0,0,0,0,1269,1269,0,632,456,0,686,0,632,0,0,0,0,0,0,0,0,0,0,0,0,0,0,0,
0,0,0,0,0,565,398,566,566,566,511,0,0,0,0,688,0,0,0,0,0,0,0,0,0,0,0,0,0,0,
0,0,0,0,0,0,456,0,0,0,0,688,0,631,0,0,0,0,0,0,0,0,0,0,0,0,0,0,0,0,
0,0,0,0,0,0,456,0,687,0,0,0,632,0,0,0,0,0,0,0,0,0,0,0,0,0,0,0,0,0,
0,0,0,0,0,0,456,0,0,0,0,688,0,0,0,0,0,0,0,0,0,0,0,0,0,0,0,0,0,0,
0,0,0,0,0,0,512,0,0,0,0,0,0,0,0,0,0,0,0,0,0,0,0,0,0,0,0,0,0,0,
0,0,0,0,0,0,0,0,0,0,0,0,0,0,0,0,0,0,0,0,0,0,0,0,0,0,0,0,0,0
</data>
 </layer>
 <layer id="3" name="Entrances" width="30" height="20">
  <data encoding="csv">
0,0,0,0,0,0,0,0,0,0,0,0,0,0,0,0,0,0,0,0,0,0,0,0,0,0,0,0,0,0,
0,0,0,0,0,0,0,0,0,0,0,0,0,0,0,0,0,0,0,0,0,0,0,0,0,0,0,0,0,0,
0,0,0,0,0,0,0,0,0,0,0,0,0,0,0,0,0,0,0,0,0,0,0,0,0,0,0,0,0,0,
0,0,0,0,0,0,0,0,0,0,0,0,0,0,0,0,0,0,0,0,0,0,0,0,0,0,0,0,0,0,
0,0,0,0,0,0,0,0,0,0,0,0,0,0,0,0,0,0,0,0,0,0,0,0,0,0,0,0,0,0,
0,0,0,0,0,0,0,0,0,0,0,0,0,0,0,0,0,0,0,0,0,0,0,0,0,0,0,0,0,0,
0,0,0,0,0,0,0,0,0,0,0,0,0,0,0,0,0,0,0,0,0,0,0,0,0,0,0,0,0,0,
0,0,0,0,0,0,0,0,0,0,0,0,0,0,0,0,0,0,0,0,0,0,0,0,0,0,0,0,0,0,
0,0,0,0,0,0,0,0,0,0,1117,0,0,0,0,0,0,0,0,0,0,0,0,0,0,0,0,0,0,0,
0,0,0,0,0,0,0,0,0,0,0,0,0,0,0,0,0,0,0,0,0,0,0,0,0,0,0,0,0,0,
0,0,0,0,0,0,0,0,0,0,0,0,0,0,0,0,1117,0,0,0,0,0,0,0,0,0,0,0,0,0,
0,0,0,0,0,0,0,0,0,0,0,0,0,0,0,0,0,0,0,0,0,0,0,0,0,0,0,0,0,0,
0,0,0,0,0,0,0,0,0,0,0,0,0,0,0,0,0,0,0,0,0,0,0,0,0,0,0,0,0,0,
0,0,0,0,0,0,0,0,0,0,0,0,0,0,0,0,0,0,0,0,0,0,0,0,0,0,0,0,0,0,
0,0,0,0,0,0,0,0,0,0,0,0,0,0,0,0,0,0,0,0,0,0,0,0,0,0,0,0,0,0,
0,0,0,0,0,0,0,0,0,0,0,0,0,0,0,0,0,0,0,0,0,0,0,0,0,0,0,0,0,0,
0,0,0,0,0,0,0,0,0,0,0,0,0,0,0,0,0,0,0,0,0,0,0,0,0,0,0,0,0,0,
0,0,0,0,0,0,0,0,0,0,0,0,0,0,0,0,0,0,0,0,0,0,0,0,0,0,0,0,0,0,
0,0,0,0,0,0,0,0,0,0,0,0,0,0,0,0,0,0,0,0,0,0,0,0,0,0,0,0,0,0,
0,0,0,0,0,0,0,0,0,0,0,0,0,0,0,0,0,0,0,0,0,0,0,0,0,0,0,0,0,0
</data>
 </layer>
 <objectgroup id="8" name="Player">
  <object id="13" gid="1287" x="317.25" y="321.25" width="32" height="32"/>
 </objectgroup>
</map>
